svgs/regular/ruler-triangle.svg

<svg xmlns="http://www.w3.org/2000/svg" viewBox="0 0 512 512"><!-- Font Awesome Pro 6.0.0-alpha2 by @fontawesome - https://fontawesome.com License - https://fontawesome.com/license (Commercial License) --><path d="M128.002 384H256.002L128.002 256V384ZM501.631 452.125L59.875 10.375C52.75 3.25 44 0 35.375 0C17.25 0 0 14 0 35.125V476.875C0 496.25 15.75 512 35.125 512H476.881C508.131 512 523.756 474.25 501.631 452.125ZM48 464V66.375L91.5 109.875L76.688 124.688C70.438 130.938 70.438 141.063 76.688 147.312C79.812 150.438 83.906 152 88 152S96.188 150.438 99.312 147.312L114.125 132.5L163.5 181.875L148.688 196.688C142.438 202.938 142.438 213.063 148.688 219.312C151.812 222.438 155.906 224 160 224S168.188 222.438 171.312 219.312L186.125 204.5L235.5 253.875L220.688 268.688C214.438 274.938 214.438 285.063 220.688 291.312C223.812 294.438 227.906 296 232 296S240.188 294.438 243.312 291.312L258.127 276.498L307.502 325.873L292.688 340.688C286.438 346.938 286.438 357.063 292.688 363.312C295.812 366.438 299.906 368 304 368S312.188 366.438 315.312 363.312L330.127 348.498L379.502 397.873L364.688 412.688C358.438 418.938 358.438 429.063 364.688 435.312C367.812 438.438 371.906 440 376 440S384.188 438.438 387.312 435.312L402.127 420.498L445.629 464H48Z"/></svg>

<svg xmlns="http://www.w3.org/2000/svg" viewBox="0 0 512 512"><!--! Font Awesome Pro 6.0.0-alpha3 by @fontawesome - https://fontawesome.com License - https://fontawesome.com/license (Commercial License) --><path d="M128 384H256L128 256V384zM501.6 452.1L59.88 10.38C52.75 3.25 44 0 35.38 0C17.25 0 0 14 0 35.13v441.8C0 496.3 15.75 512 35.13 512h441.8C508.1 512 523.8 474.3 501.6 452.1zM48 464V66.38l43.5 43.5L76.69 124.7c-6.25 6.25-6.25 16.38 0 22.62C79.81 150.4 83.91 152 88 152s8.188-1.562 11.31-4.688L114.1 132.5L163.5 181.9L148.7 196.7c-6.25 6.25-6.25 16.38 0 22.62C151.8 222.4 155.9 224 160 224s8.188-1.562 11.31-4.688L186.1 204.5L235.5 253.9L220.7 268.7c-6.25 6.25-6.25 16.38 0 22.62C223.8 294.4 227.9 296 232 296s8.188-1.562 11.31-4.688l14.81-14.81l49.38 49.38l-14.81 14.81c-6.25 6.25-6.25 16.38 0 22.62C295.8 366.4 299.9 368 304 368s8.188-1.562 11.31-4.688l14.81-14.81l49.38 49.38l-14.81 14.81c-6.25 6.25-6.25 16.38 0 22.62C367.8 438.4 371.9 440 376 440s8.188-1.562 11.31-4.688l14.81-14.81L445.6 464H48z"/></svg>
